packages/ui-icons/src/Service-logos/24/Megafon-Elena.svg

<svg viewBox="0 0 32 32" fill="none" xmlns="http://www.w3.org/2000/svg">
<path d="M16 28C22.6274 28 28 22.6274 28 16C28 9.37258 22.6274 4 16 4C9.37258 4 4 9.37258 4 16C4 22.6274 9.37258 28 16 28Z" fill="#00B956"/>
<path fill-rule="evenodd" clip-rule="evenodd" d="M11.0016 19.1252C10.6653 18.8613 10.1737 18.9142 9.90423 19.2431C9.63441 19.5722 9.68819 20.0523 10.0248 20.3164C10.3608 20.5802 10.8524 20.5273 11.1222 20.1985C11.3923 19.8697 11.3382 19.3893 11.0016 19.1252Z" fill="#731982"/>
<path fill-rule="evenodd" clip-rule="evenodd" d="M12.1 20.4638C11.7637 20.1997 11.2721 20.2526 11.0026 20.5814C10.7324 20.9106 10.7865 21.3906 11.1232 21.6547C11.4592 21.9186 11.9508 21.866 12.2206 21.5368C12.4904 21.208 12.4366 20.7276 12.1 20.4638Z" fill="#731982"/>
<path fill-rule="evenodd" clip-rule="evenodd" d="M13.6816 21.227C13.3449 20.9632 12.8537 21.016 12.5838 21.3449C12.314 21.674 12.3681 22.1541 12.7044 22.4182C13.0408 22.682 13.532 22.6292 13.8022 22.3003C14.072 21.9715 14.0179 21.4911 13.6816 21.227Z" fill="white"/>
<path fill-rule="evenodd" clip-rule="evenodd" d="M14.1601 22.7558L14.4229 21.7907C14.9254 21.9272 15.4541 22 15.9998 22C19.3135 22 21.9998 19.3137 21.9998 16C21.9998 12.6863 19.3135 10 15.9998 10C12.686 10 9.99976 12.6863 9.99976 16C9.99976 16.8693 10.1846 17.6954 10.5172 18.4412L9.60342 18.848C9.21543 17.978 8.99976 17.0142 8.99976 16C8.99976 12.134 12.1338 9 15.9998 9C19.8657 9 22.9998 12.134 22.9998 16C22.9998 19.866 19.8657 23 15.9998 23C15.3631 23 14.7463 22.915 14.1601 22.7558Z" fill="white"/>
<path fill-rule="evenodd" clip-rule="evenodd" d="M17.7378 14.1307V13.3218H14.1818V18.91H17.7378V18.1014H15.0091V16.3784C15.3718 16.3775 16.0616 16.3766 17.3862 16.3766V15.5677C16.0696 15.5677 15.3769 15.5686 15.0091 15.5696V14.1307H17.7378Z" fill="#FEFEFE"/>
</svg>

<svg viewBox="0 0 32 32" fill="none" xmlns="http://www.w3.org/2000/svg"><path d="M16 28c6.627 0 12-5.373 12-12S22.627 4 16 4 4 9.373 4 16s5.373 12 12 12Z" fill="#00B956"/><path fill-rule="evenodd" clip-rule="evenodd" d="M11.002 19.125a.793.793 0 0 0-1.098.118c-.27.33-.216.81.12 1.073a.793.793 0 0 0 1.098-.117.752.752 0 0 0-.12-1.074ZM12.1 20.464a.792.792 0 0 0-1.097.117c-.27.33-.216.81.12 1.074a.792.792 0 0 0 1.098-.118.752.752 0 0 0-.121-1.073Z" fill="#731982"/><path fill-rule="evenodd" clip-rule="evenodd" d="M13.682 21.227a.793.793 0 0 0-1.098.118c-.27.329-.216.81.12 1.073a.793.793 0 0 0 1.098-.118.752.752 0 0 0-.12-1.073Z" fill="#fff"/><path fill-rule="evenodd" clip-rule="evenodd" d="m14.16 22.756.263-.965a6 6 0 1 0-3.906-3.35l-.914.407a7 7 0 1 1 4.557 3.908Z" fill="#fff"/><path fill-rule="evenodd" clip-rule="evenodd" d="M17.738 14.13v-.808h-3.556v5.588h3.556v-.809h-2.729v-1.723l2.377-.001v-.81c-1.316 0-2.01.002-2.377.003v-1.44h2.729Z" fill="#FEFEFE"/></svg>
